!!!COM: Corelli, Arcangelo
!!!OTL: 
!!!ONM: Opus 5, No. 1
!!!OMV: 3
!!!CDT: 1653/2/17/-1713/1/8/
!!!OCY: Italia
**kern	**kern
*clefC	*clefG
*k[f#c#]	*k[f#c#]
*b:	*b:
*M3/2	*M3/2
=1	=1
1BB	2r
.	2dd
2B	2b
=2	=2
2E	2gg
1AA#	2.ff#
.	4ee
=3	=3
1BB	2dd
.	2b
2AA	2ff#
=4	=4
1GG	2.bb
.	4ddd
2EE	4ccc#
.	4bb
=5	=5
2FF#	1.aa#
2F#	.
2E	.
=6	=6
1D#	2r
.	2bb
2D#	2ff#
=7	=7
1E	1gg
2F#	2ff#
=8	=8
2G	2bb
1GG	2.ee
.	4ff#
=9	=9
2FF#	1.ff#
2F#	.
2F#	.
=10	=10
1B	2r
.	2ff#
2A	2ff#
=11	=11
2r	1bb
2G	.
2F#	2aa
=12	=12
2BB	1gg
2C#	.
2D	2ff#
=13	=13
2AA	2ee
2A	1a
2G	.
=14	=14
2F#	2r
2FF#	2dd
2r	2ff#
=15	=15
2G	2b
2GG	2ee
2r	4ff#
.	4gg
=16	=16
2A	2cc#
2AA	2ff#
2r	4gg
.	4aa
=17	=17
2B	2dd
2BB	2gg
2r	4aa
.	4bb
=18	=18
2c#	2.aa
2A	.
.	4gg
2d	4ff#
.	4ee
=19	=19
2G	4ff#
.	4gg
2A	1ee
2AA	.
=20	=20
2D	2dd
1r	2b
.	2dd
=21	=21
2r	2cc#
2F#	2f#
2A	[2ff#
=22	=22
2G#	2ff#]
2C#	1ee
[2c#	.
=23	=23
2c#]	1dd
2F#	.
2B	2dd
=24	=24
1BB	2e#
.	2c#
2AA	2cc#
=25	=25
2BB	4b
.	4a
1C#	1g#
=26	=26
2F#	2f#
2f#	[1aa
2e	.
=27	=27
2d#	2aa]
2B	4bb
.	4aa
2e	4gg
.	4ff#
=28	=28
2A	4gg
.	4aa
2B	1ff#
2BB	.
=29	=29
2E	2ee
2e	[1gg
2d	.
=30	=30
2c#	2gg]
2A	4aa
.	4gg
2c#	4ff#
.	4ee
=31	=31
2d	2ff#
2f#	4dd
.	4ee
2d	2ff#
=32	=32
2G#	2r
2A#	4cc#
.	4dd
2F#	2ee
=33	=33
2B	2r
2d	4b
.	4cc#
2B	2dd
=34	=34
1E	2r
.	2cc#
2E	4dd
.	4ee
=35	=35
1F#	2a#
.	2f#
2D	[2ff#
=36	=36
1G	2ff#]
.	2b
2E	[2ee
=37	=37
2AA#	2ee]
2BB	2dd
2E	2cc#
=38	=38
2F#	2dd
1FF#	1cc#
=39	=39
1BB	2b
.	[1ff#
2AA	.
=40	=40
1GG	2ff#]
.	2b
2E	2gg
=41	=41
1E	1a#
2D	2ff#
=42	=42
2E	4ee
.	4dd
2F#	1cc#
2FF#	.
=43	=43
1BB	1b
[2AA	[2ff#
=44	=44
2AA]	2ff#]
1GG	1ee
=45	=45
1.FF#	1.ff#
==	==
*-	*-
!!!RWG: This file only contains pitch and duration data.
!!!RWG: Transposing instruments are not transposed.
!!!RWG: Durations of rests and tied notes may be interpreted.
!!!RWG: Key is interpreted using the Humdrum key tool.
!!!SCA: 
!!!YOR: 
!!!AGN: violin
!!!AFT: stage1
!!!ENC: F. Bennion
!!!END: 1997/04/15
!!!AST: baroque
!!!YEC: Copyright 1994, Center for Computer Assisted Research in the Humanities
!!!YEM: Rights to all derivative electronic formats reserved.
!!!YEM: Refer to licensing agreement for further details.
!!!YEN: United States of America
!!!EED: W.B. Hewlett
!!!KEY: 4178971973
!!!EMD: Converted from MuseData to Humdrum Aug 9, 1999, by Bret Aarden using muse2kern.
!!!VTS: 2468519708
